!!! OTL: Berkowitz430
!!! Chapter: 1
!!! Section: IV
!!! Page: 107
!!! Mode: 
!!! Encoder: DJB
**kern
*staff1
*I"Piano
=1-
*clefC3
*k[f#c#]
*D:
*M2/4
4r
16r
16r
16r
16A/
=2
16d\LL
16c#\
16d\
16c#\JJ
16d\LL
16c#\
32d\L
32e\
32f#\
32g\JJJ
=3
16a\LL
16g#\
16a\
16b\JJ
8a\
16r
16a#\
=4
16b\LL
16a#\
16b\
16g\JJ
16an\LL
16g#\
16a\
16f#\JJ
=5
16g\LL
16f#\
16g\
16e\JJ
16f#\LL
16d\
16e\
16A\JJ
=6
!!linebreak:original
16d\LL
16c#\
16d\
16c#\JJ
16d\LL
16c#\
32d\L
32e\
32f#\
32g\JJJ
=7
16a\LL
16g#\
16a\
16a#\JJ
8b\L
8cc#\J
=8
16dd\LL
16cc#\
16dd\
16a#\JJ
16b\LL
16a#\
16b\
16f#\JJ
=9
16g\LL
16f#\
16g\
16d#\JJ
16e\LL
16d#\J
8e\J
=10
8r
8B-/
8.A/L
32Bn/LL
32c#/JJJ
=11
16d\LL
16c#\
16d\
16c#\JJ
8d\
8r
==
*-
